X:1
T:Monti, selve, fontane
T:Madalena Casulana
T:Source : Secondo libro de madrigali a quattro voci---Venetia---G.Scotto---1570. Editor : André Vierendeels (17/08/17).
T:Monti, selve, fontane
T:©
T:©
T:©
C:Madalena Casulana
Z:©
%%score [ 1 2 3 4 ]
L:1/8
Q:1/4=120
M:2/2
K:C
V:1 treble nm="Soprano 1" snm="S 1"
V:2 treble nm="Soprano 2" snm="S 2"
V:3 treble nm="Alto" snm="A"
V:4 treble-8 nm="Tenor" snm="T"
V:1
 A8 | e8 | z2 e4 ^c2- | c2 d2 A2 B2 | c6 c2 | c8 | A4 z2 e2- | e2 d2 e4 | ^c2 c2 d3 d | e2 f2 d4 | %10
w: Mon-|ti,|sel- ve,|_ fon- ta- ne|piagg' e|sas-|si, vo|_ cer- cand'|io se pur po-|tesss' un gior-|
 e4 z2 c2 | c3 c c2 A2 | c4 z2 e2 | g4 f4- | f4 e4- | e2 dc d4 | e4 z2 B2 | ^c2 d2 B2 B2 | %18
w: no, in|par- te ra- len-|tar l'ac-|cer- bo|_ pian-||to, ma|ben vegg' hor che|
 B3 B B2 B2 | E4 E2 e2- | ee e2 ^d4 | e4 z2 e2 | A3 A A4- |"^-natural" A2 E2 F4 | E2 e2 e3 e | %25
w: sol' in u- na|val- le, tro|_ vo ri- po-|so, a|le mie stan-|* che ri-|me, che mor- mo-|
 ^c2 c2 d3 A | B2 B2 c4 | B2 B2 B3 B | ^G2 G2 A3 E | ^F4 A4 | A8 | A8 |] %32
w: ran- do van per|mil- le cam-|pi, che mor- mo-|ran- do van per|mil- le|cam-|pi.|
V:2
 z8 | c8 | B4 z2 e2 | e2 A2 d4 | G4 A4- | A4 G4 | c4 C4 | z2 A4 ^G2 | A2 E2 ^F2 G2- | GG c4 B2 | %10
w: |Mon-|ti, sel-|ve, fon- ta-|ne piagg'|_ e|sas- si,|vo- cer-|cand' io se pur|_ po- tess' un|
 c4 G2 E2 | F3 F E2 F2 | G4 c4 | c4 A4 | A8- | A8 |"^-natural" ^G4 z2 G2 | A2 A2 D2 E2 | %18
w: gior- no, in|par- te ra- len-|tar l'ac-|cer- bo|pian-||to, ma|ben vegg' hor che|
 ^G3 G G3 G |"^-natural" A4 A2 c2- | cc c2 B4 | ^G4 z2 A2 | E3 E ^F4 | A4 A4- | A4 ^c4 | %25
w: sol' in u- na|val- le, tro-|* vo ri- po-|so, a|le mie stan-|che ri-|* me,|
 z2 e2 A3 d | d2 d2 G3 G | G2 G2 G4 | B2 B2 E3 E | A2 A2 ^F3 F |"^-natural" A2 E2 F4 | E8 |] %32
w: che mor- mo-|ran- do van per|mil- le cam-|pi, che mor- mo-|ran- do van per|mil- le cam-|pi.|
V:3
 z8 | A8 | ^G4 z2 A2- | A2 ^F4 G2 | E4 E2 F2- | FC F3 E/D/ E2 | F2 A4 G2 | A4 B4 | z2 A2 A2 B2 | %9
w: |Mon-|ti, sel-|* ve, fon-|ta- ne piagg'|_ e sas- * * *|si, vo- cer-|cand' io|se pur po-|
 c2 A2 G4 | G4 z2 G2 | A3 A G2 F2 | E4 E4- | E4 D4- | D4 C4 | A,8 | B,2 B,2 E4- | E2 ^F2 G2 G2 | %18
w: tess' un gior-|no, in|par- te ra- len-|tar l'ac-|* cer-|* bo|pian-|to, ma ben|_ vegg' hor che|
 E3 E E2 E2 | ^C4 C2 A2- | AA A2 ^F4 | E4 z2 ^C2 | ^C3 C D4 | E4 D4 | ^C4 z2 A2 | A3 A ^F2 F2 | %26
w: sol' in u- na|val- le, tro-|* vo ri- po-|so, a|le mie stan-|che ri-|me, che|mor- mo- ran- do|
 G3 D E2 E2 | D4 D2 E2 | E3 E ^C2 C2 | D3 A, D4 | E4 D4 | ^C8 |] %32
w: van per mil- le|cam- pi, che|mor- mo- ran- do|van per mil-|le cam-|pi.|
V:4
 z8 | A8 | e4 z4 | z2 d2 d2 G2 | c4 A2 F2- | F2 A2 c4 | F2 f4 e2 | f4 e4 | z2 A2 d2 G2 | c2 F2 G4 | %10
w: |Mon-|ti,|sel- ve, fon-|ta- ne piagg'|_ e sas-|si, vo- cer-|cand' io|se pur po-|tess' un gior-|
 c4 z2 c2 | F3 F c2 d2 | c4 A4 | E4 F4 | A6 G2 | F8 | E4 z2 E2 | A2 D2 G2 E2 | E3 E E2 E2 | %19
w: no, in|par- te ra- len-|tar l'ac-|cer- bo|pian- *||to, ma|ben vegg' hor che|sol' in u- na|
 A4 A2 A2- | AA A2 B4 | E4 z2 A2 | A3 A D4 | ^C4 D4 | A4 z2 A2 | A3 A d2 d2 | G3 G c2 c2 | %27
w: val- le, tro-|* vo ri- po-|so, a|le mie stan-|che ri-|me, che|mor- mo- ran- do|van per mil- le|
 G4 G2 E2 | E3 E A2 A2 | D3 D D4 | ^C4 D4 | A8 |] %32
w: cam- pi, che|mor- mo- ran- do|van per mil-|le cam-|pi.|

